X:3050
T:Lapp-Nils Polska
A:Jmtland
C:e. P. Karlsson Viksten
M:3/4
O:Sweden
R:Polska
Z:Richard Robinson 
%%TUNEURL: http://www.leeds.ac.uk/music/Info/RRTuneBk/gettune/000008c1.html
%%ID:000008c1
K:G dorian
D>^F G<A B>d | (3cAc (3BAG A>^F \
|1 G2 A3 D :|2 ^F<G G4 :|
K:G
|: B>d c<e d>c | B>G A<c B>d | (3cAc (3BAG A>F\
|1 (3GAB (3cAc B>G :|2 F<G G4:|
